src/svg/print-sharp.svg

<svg xmlns="http://www.w3.org/2000/svg" width="512" height="512"><path d="M400 96V56a8 8 0 00-8-8H120a8 8 0 00-8 8v40"/><rect x="152" y="264" width="208" height="160" rx="4" ry="4" fill="none"/><rect x="152" y="264" width="208" height="160" rx="4" ry="4" fill="none"/><path d="M408 112H104a56 56 0 00-56 56v208a8 8 0 008 8h56v72a8 8 0 008 8h272a8 8 0 008-8v-72h56a8 8 0 008-8V168a56 56 0 00-56-56zm-48 308a4 4 0 01-4 4H156a4 4 0 01-4-4V268a4 4 0 014-4h200a4 4 0 014 4zm34-212.08a24 24 0 1122-22 24 24 0 01-22 22z"/></svg>

<svg xmlns="http://www.w3.org/2000/svg" width="512" height="512" viewBox="0 0 512 512"><title>ionicons-v5-f</title><path d="M400,96V56a8,8,0,0,0-8-8H120a8,8,0,0,0-8,8V96"/><rect x="152" y="264" width="208" height="160" rx="4" ry="4" style="fill:none"/><rect x="152" y="264" width="208" height="160" rx="4" ry="4" style="fill:none"/><path d="M408,112H104a56,56,0,0,0-56,56V376a8,8,0,0,0,8,8h56v72a8,8,0,0,0,8,8H392a8,8,0,0,0,8-8V384h56a8,8,0,0,0,8-8V168A56,56,0,0,0,408,112ZM360,420a4,4,0,0,1-4,4H156a4,4,0,0,1-4-4V268a4,4,0,0,1,4-4H356a4,4,0,0,1,4,4ZM394,207.92a24,24,0,1,1,22-22A24,24,0,0,1,394,207.92Z"/></svg>
